assets/svg/food.svg

<svg fill="none" height="180" viewBox="0 0 171 180" width="171" xmlns="http://www.w3.org/2000/svg"><g fill="#fff"><path d="m62.8981 140.802c1.6505 0 2.9882-1.338 2.9882-2.989 0-1.65-1.3377-2.988-2.9882-2.988-14.4819.014-27.5463-8.697-33.1021-22.071-.6405-1.517-2.3873-2.23-3.9065-1.595-1.5191.635-2.2388 2.379-1.6091 3.901 6.4831 15.6 21.724 25.759 38.6177 25.742z" opacity=".7"/><path clip-rule="evenodd" d="m164.501 95.9767h-9.277c-.922-4.4097-3.79-8.1648-7.802-10.2148l3.597-3.0474c1.998-1.6736 3.183-4.1239 3.254-6.7297.041-3.5986-1.205-7.0932-3.513-9.8545l1.082-1.0817 8.997 1.8003c1.047.2094 2.126-.1551 2.831-.9571.705-.8016.928-1.9187.586-2.9301-.341-1.0113-1.197-1.7635-2.244-1.973l-5.092-1.0187 3.628-3.6283h7.216c1.65 0 2.988-1.3378 2.988-2.9882 0-1.6505-1.338-2.9883-2.988-2.9883h-1.239l3.352-3.3517c1.158-1.1682 1.154-3.0533-.009-4.2167-1.164-1.1633-3.049-1.1672-4.217-.0091l-3.35 3.3503v-1.2372c0-1.6505-1.338-2.9882-2.988-2.9882-1.651 0-2.989 1.3381-2.989 2.9882v7.214l-2.477 2.4776v-1.2386c0-1.6505-1.338-2.9882-2.988-2.9882-1.651 0-2.989 1.3377-2.989 2.9882v7.2154l-1.335 1.3357c-2.761-2.3106-6.257-3.557-9.856-3.5128-2.585.0682-5.018 1.2358-6.689 3.2102l-4.529 5.3468c-3.061-4.2784-7.994-6.8211-13.255-6.832-2.894.0035-5.734.7841-8.224 2.2605l-.286-2.7858c-1.33-9.9798-9.8544-17.4264-19.9225-17.4039-10.068.0224-18.5589 7.5071-19.8444 17.4929l-.5863 5.7071-6.2075-6.2076c-2.3348-2.3319-6.1169-2.3319-8.4512 0l-9.663 9.6616c-1.1167-1.4541-2.1589-2.9641-3.1223-4.5239l-4.0885-9.4524c-.7004-1.6319-2.0924-2.8663-3.7968-3.3661l-.0028-.0014-14.9243-4.3963c-2.2244-.6563-4.6278.0336-6.16515 1.7699-1.53736 1.7362-1.93167 4.2054-1.01101 6.3339l1.15844 2.6762c.05778.1825.13413.3583.22763.5253l6.75599 15.6288c.014.0323.0334.0596.0529.087.016.0226.0321.0453.0451.0706 1.7219 7.1437 1.8725 14.5758.4423 21.7835h-8.47295c-3.29918.0039-5.972915 2.6776-5.976767 5.977v2.988c.031168 28.044 22.757717 50.77 50.801717 50.802h7.1411l-2.9563 5.976h-4.1848c-4.9511 0-8.965 4.014-8.965 8.965 0 4.952 4.0136 8.965 8.965 8.965h65.7434c4.951 0 8.965-4.013 8.965-8.965 0-4.951-4.014-8.965-8.965-8.965h-4.13l-2.988-5.976h10.106c28.044-.031 50.77-22.758 50.802-50.802v-2.988c-.004-3.2997-2.678-5.9735-5.977-5.9773zm-15.458 0h-14.224c1.541-1.1395 3.152-2.3491 4.876-3.6669l2.502-2.1187c3.151.5694 5.759 2.7739 6.846 5.7856zm-20.841-23.0211-3.288 3.8788c-1.283 1.6858-2.489 3.297-3.657 4.8715-.261.3516-.519.7-.774 1.0453-1.149 1.5577-2.258 3.0754-3.288 4.5165l-.041.0567c-1.025 1.4334-1.973 2.7918-2.877 4.1061l-.1.1448c-.137.1989-.274.3974-.407.5927-.897 1.3156-1.746 2.5823-2.516 3.7698l-.025.0385h13.452c.269-.1915.554-.3998.839-.6081.22-.1604.439-.3208.652-.4736v-.0039l.955-.6902c1.308-.9469 2.657-1.9338 4.045-2.9609 1.008-.748 2.043-1.5268 3.085-2.3134.219-.1655.434-.3256.648-.4856l.003-.0023.001-.0006c.341-.2546.681-.509 1.042-.7844l4.273-3.626.006.0004 6.969-5.9099c.71-.6083 1.115-1.4999 1.106-2.4352-.091-2.6584-1.248-5.1686-3.211-6.9644l-.57-.5704-.004-.0032-.003-.0042-.572-.5718c-1.794-1.9639-4.305-3.1203-6.963-3.2071-.915-.013-1.79.3747-2.396 1.0607l-2.508 2.9585 3.99 3.9901c1.167 1.1668 1.167 3.0589 0 4.2258-1.166 1.1668-3.058 1.1668-4.225 0zm-15.997-6.8621c3.88.0109 7.431 2.1789 9.213 5.6252l-1.161 1.3731c-1.234 1.619-2.396 3.1689-3.525 4.6867-.275.3698-.543.7326-.812 1.0961-.949 1.2841-1.86 2.5305-2.733 3.7394-.068.0946-.138.191-.208.2873-.088.1201-.175.2401-.259.3567-1.012 1.4095-1.968 2.7641-2.869 4.0636-.076.1097-.149.2163-.222.3226v.0001.001c-.067.0979-.134.1956-.203.2951-.747 1.0846-1.454 2.1292-2.121 3.1336-.048.0725-.101.1494-.153.2264-.06.0875-.12.1752-.174.2568l-2.007-19.5412-.274-2.6702c1.948-2.0721 4.664-3.2491 7.508-3.2523zm-34.3655 23.9064h-11.0157l-.6136 5.9768h35.2148l-1.284-12.5048-.5572-5.4252h-9.7908c-1.6504 0-2.9882-1.3377-2.9882-2.9882 0-1.6501 1.3378-2.9882 2.9882-2.9882h9.1765l-1.2095-11.7795c-.982-6.9493-6.9255-12.1181-13.9437-12.1269-6.9412.0235-12.8336 5.0933-13.8923 11.9532h7.9155c1.6505 0 2.9882 1.3378 2.9882 2.9882 0 1.6505-1.3377 2.9882-2.9882 2.9882h-8.5623l-.631 6.1498.0007.0063-1.2082 11.7739h10.4008c1.6505 0 2.9882 1.3377 2.9882 2.9882s-1.3377 2.9882-2.9882 2.9882zm-24.9307-26.5941 9.6458 9.6457-1.3388 13.0357-.2263 1.1479c-.7319-.6335-1.4823-1.2705-2.2202-1.8886-.8321-.7686-1.7121-1.483-2.6352-2.1397-.6013-.4668-1.1332-.8649-1.4715-1.0744-1.0912-.6769-2.1369-1.3447-3.1493-2.0153-.1035-.0685-.2016-.1368-.2995-.2051l-.0004-.0003c-.0819-.057-.1636-.1141-.2485-.1711-.8317-.5596-1.6466-1.1213-2.4297-1.6953-.0873-.064-.1715-.1289-.2558-.1939-.0715-.0551-.1429-.1102-.2162-.1647-.7908-.5915-1.563-1.1934-2.3092-1.8175-.083-.0692-.1642-.1397-.2453-.2103-.0524-.0455-.1047-.091-.1575-.136-.7497-.6409-1.4792-1.3035-2.1887-1.9965-.0227-.0222-.0453-.0445-.0679-.0669l-.0373-.0371-.0411-.0408-.0431-.0425zm-13.174 15.1123c-2.8887-2.7011-5.449-5.7331-7.6276-9.0336l-4.4383 1.9183-7.2701 3.1434c1.4446 7.0631 1.5241 14.3373.2336 21.4301h38.7084c-1.1013-2.2881-2.6138-4.3546-4.4622-6.0958-1.0089-.8461-1.9341-1.6025-2.5914-2.1078-.1108-.076-.2172-.1572-.3235-.2384-.1471-.1123-.2942-.2246-.4529-.323-1.3038-.8089-2.5249-1.6028-3.7106-2.3967-.2519-.1688-.5035-.3418-.7522-.5128l-.0002-.0001-.0003-.0002-.0002-.0001-.0002-.0002-.1427-.0981c-1.1221-.7704-2.2063-1.5489-3.2379-2.3438-.0373-.0288-.0757-.057-.1142-.0852l-.0002-.0001-.0001-.0001c-.0242-.0177-.0484-.0355-.0723-.0534-.0162-.0121-.0323-.0243-.0482-.0367-1.177-.9154-2.2952-1.8714-3.3773-2.8645-.061-.0562-.1217-.114-.1825-.1718-.0456-.0434-.0912-.0868-.1369-.1294zm-27.0578-22.7217-.0203-.0497-1.2607-2.9126 14.9243 4.3964 3.0057 6.9454-10.9727 4.7437zm106.999 114.8886c-.001-1.65-1.338-2.987-2.988-2.988h-65.7434c-1.6502 0-2.9883 1.337-2.9883 2.988 0 1.65 1.3378 2.988 2.9883 2.988h65.7434c1.649-.001 2.986-1.338 2.988-2.988zm-57.8782-8.965 2.9563-5.977h38.1339l2.988 5.977zm57.8782-11.953c24.745-.028 44.797-20.081 44.825-44.825v-2.989h-158.38135v2.989c.02767 24.744 20.08015 44.797 44.82495 44.825z" fill-rule="evenodd"/><path d="m57.759 41.2736c1.1458 1.1878 3.0379 1.2218 4.2258.076 1.1878-1.1459 1.2218-3.038.076-4.2258-2.8716-3.0243-2.8716-7.7677 0-10.792 5.0806-5.3495 5.0806-13.7416 0-19.09152-1.1459-1.18786-3.038-1.22183-4.2258-.07599-1.1879 1.14583-1.2218 3.03791-.076 4.22581 2.8716 3.0243 2.8716 7.7676 0 10.7919-5.0778 5.351-5.0778 13.7406 0 19.0916z" opacity=".7"/><path d="m81.6654 35.2968c1.1458 1.1878 3.0379 1.2218 4.2257.076 1.1879-1.1459 1.2219-3.038.076-4.2258-2.8716-3.0243-2.8716-7.7677 0-10.792 5.0807-5.3495 5.0807-13.74161 0-19.09153-1.1458-1.1878584-3.0379-1.2218273-4.2258-.07599-1.1878 1.14584-1.2218 3.03794-.0759 4.2258 2.8715 3.02428 2.8715 7.76762 0 10.79192-5.0775 5.351-5.0779 13.7406 0 19.0916z" opacity=".7"/><path d="m105.572 41.2736c1.146 1.1878 3.038 1.2218 4.226.076 1.188-1.1459 1.222-3.038.076-4.2258-2.872-3.0243-2.872-7.7677 0-10.792 5.081-5.3495 5.081-13.7416 0-19.09152-1.146-1.18786-3.038-1.22183-4.226-.07599-1.188 1.14583-1.222 3.03791-.076 4.22581 2.872 3.0243 2.872 7.7676 0 10.7919-5.078 5.351-5.078 13.7406 0 19.0916z" opacity=".7"/></g></svg>

<svg width="171" height="180" viewBox="0 0 171 180" fill="none" xmlns="http://www.w3.org/2000/svg">
<path opacity="0.7" d="M62.8981 140.802C64.5486 140.802 65.8863 139.464 65.8863 137.813C65.8863 136.163 64.5486 134.825 62.8981 134.825C48.4162 134.839 35.3518 126.128 29.796 112.754C29.1555 111.237 27.4087 110.524 25.8895 111.159C24.3704 111.794 23.6507 113.538 24.2804 115.06C30.7635 130.66 46.0044 140.819 62.8981 140.802Z" fill="white"/>
<path fill-rule="evenodd" clip-rule="evenodd" d="M164.501 95.9767H155.224C154.302 91.567 151.434 87.8119 147.422 85.7619L151.019 82.7145C153.017 81.0409 154.202 78.5906 154.273 75.9848C154.314 72.3862 153.068 68.8916 150.76 66.1303L151.842 65.0486L160.839 66.8489C161.886 67.0583 162.965 66.6938 163.67 65.8918C164.375 65.0902 164.598 63.9731 164.256 62.9617C163.915 61.9504 163.059 61.1982 162.012 60.9887L156.92 59.97L160.548 56.3417H167.764C169.414 56.3417 170.752 55.0039 170.752 53.3535C170.752 51.703 169.414 50.3652 167.764 50.3652H166.525L169.877 47.0135C171.035 45.8453 171.031 43.9602 169.868 42.7968C168.704 41.6335 166.819 41.6296 165.651 42.7877L162.301 46.138V44.9008C162.301 43.2503 160.963 41.9126 159.313 41.9126C157.662 41.9126 156.324 43.2507 156.324 44.9008V52.1148L153.847 54.5924V53.3538C153.847 51.7033 152.509 50.3656 150.859 50.3656C149.208 50.3656 147.87 51.7033 147.87 53.3538V60.5692L146.535 61.9049C143.774 59.5943 140.278 58.3479 136.679 58.3921C134.094 58.4603 131.661 59.6279 129.99 61.6023L125.461 66.9491C122.4 62.6707 117.467 60.128 112.206 60.1171C109.312 60.1206 106.472 60.9012 103.982 62.3776L103.696 59.5918C102.366 49.612 93.8416 42.1654 83.7735 42.1879C73.7055 42.2103 65.2146 49.695 63.9291 59.6808L63.3428 65.3879L57.1353 59.1803C54.8005 56.8484 51.0184 56.8484 48.6841 59.1803L39.0211 68.8419C37.9044 67.3878 36.8622 65.8778 35.8988 64.318L31.8103 54.8656C31.1099 53.2337 29.7179 51.9993 28.0135 51.4995L28.0107 51.4981L13.0864 47.1018C10.862 46.4455 8.4586 47.1354 6.92125 48.8717C5.38389 50.6079 4.98958 53.0771 5.91024 55.2056L7.06868 57.8818C7.12646 58.0643 7.20281 58.2401 7.29631 58.4071L14.0523 74.0359C14.0663 74.0682 14.0857 74.0955 14.1052 74.1229C14.1212 74.1455 14.1373 74.1682 14.1503 74.1935C15.8722 81.3372 16.0228 88.7693 14.5926 95.977H6.11965C2.82047 95.9809 0.146735 98.6546 0.142883 101.954V104.942C0.174051 132.986 22.9006 155.712 50.9446 155.744H58.0857L55.1294 161.72H50.9446C45.9935 161.72 41.9796 165.734 41.9796 170.685C41.9796 175.637 45.9932 179.65 50.9446 179.65H116.688C121.639 179.65 125.653 175.637 125.653 170.685C125.653 165.734 121.639 161.72 116.688 161.72H112.558L109.57 155.744H119.676C147.72 155.713 170.446 132.986 170.478 104.942V101.954C170.474 98.6543 167.8 95.9805 164.501 95.9767ZM149.043 95.9767H134.819C136.36 94.8372 137.971 93.6276 139.695 92.3098L142.197 90.1911C145.348 90.7605 147.956 92.965 149.043 95.9767ZM128.202 72.9556L124.914 76.8344C123.631 78.5202 122.425 80.1314 121.257 81.7059C120.996 82.0575 120.738 82.4059 120.483 82.7512C119.334 84.3089 118.225 85.8266 117.195 87.2677L117.154 87.3244C116.129 88.7578 115.181 90.1162 114.277 91.4305L114.177 91.5753C114.04 91.7742 113.903 91.9727 113.77 92.168C112.873 93.4836 112.024 94.7503 111.254 95.9378L111.229 95.9763H124.681C124.95 95.7848 125.235 95.5765 125.52 95.3682C125.74 95.2078 125.959 95.0474 126.172 94.8946L126.172 94.8907L127.127 94.2005C128.435 93.2536 129.784 92.2667 131.172 91.2396C132.18 90.4916 133.215 89.7128 134.257 88.9262C134.476 88.7607 134.691 88.6006 134.905 88.4406L134.908 88.4383L134.909 88.4377C135.25 88.1831 135.59 87.9287 135.951 87.6533L140.224 84.0273L140.23 84.0277L147.199 78.1178C147.909 77.5095 148.314 76.6179 148.305 75.6826C148.214 73.0242 147.057 70.514 145.094 68.7182L144.524 68.1478L144.52 68.1446L144.517 68.1404L143.945 67.5686C142.151 65.6047 139.64 64.4483 136.982 64.3615C136.067 64.3485 135.192 64.7362 134.586 65.4222L132.078 68.3807L136.068 72.3708C137.235 73.5376 137.235 75.4297 136.068 76.5966C134.902 77.7634 133.01 77.7634 131.843 76.5966L128.202 72.9556ZM112.205 66.0935C116.085 66.1044 119.636 68.2724 121.418 71.7187L120.257 73.0918C119.023 74.7108 117.861 76.2607 116.732 77.7785C116.457 78.1483 116.189 78.5111 115.92 78.8746C114.971 80.1587 114.06 81.4051 113.187 82.614C113.119 82.7086 113.049 82.805 112.979 82.9013C112.891 83.0214 112.804 83.1414 112.72 83.258C111.708 84.6675 110.752 86.0221 109.851 87.3216C109.775 87.4313 109.702 87.5379 109.629 87.6442L109.629 87.6443L109.629 87.6453C109.562 87.7432 109.495 87.8409 109.426 87.9404C108.679 89.025 107.972 90.0696 107.305 91.074C107.257 91.1465 107.204 91.2234 107.152 91.3004C107.092 91.3879 107.032 91.4756 106.978 91.5572L104.971 72.016L104.697 69.3458C106.645 67.2737 109.361 66.0967 112.205 66.0935ZM77.8395 89.9999H66.8238L66.2102 95.9767H101.425L100.141 83.4719L99.5838 78.0467H89.793C88.1426 78.0467 86.8048 76.709 86.8048 75.0585C86.8048 73.4084 88.1426 72.0703 89.793 72.0703H98.9695L97.76 60.2908C96.778 53.3415 90.8345 48.1727 83.8163 48.1639C76.8751 48.1874 70.9827 53.2572 69.924 60.1171H77.8395C79.49 60.1171 80.8277 61.4549 80.8277 63.1053C80.8277 64.7558 79.49 66.0935 77.8395 66.0935H69.2772L68.6462 72.2433L68.6469 72.2496L67.4387 84.0235H77.8395C79.49 84.0235 80.8277 85.3612 80.8277 87.0117C80.8277 88.6622 79.49 89.9999 77.8395 89.9999ZM52.9088 63.4058L62.5546 73.0515L61.2158 86.0872L60.9895 87.2351C60.2576 86.6016 59.5072 85.9646 58.7693 85.3465C57.9372 84.5779 57.0572 83.8635 56.1341 83.2068C55.5328 82.74 55.0009 82.3419 54.6626 82.1324C53.5714 81.4555 52.5257 80.7877 51.5133 80.1171C51.4098 80.0486 51.3117 79.9803 51.2138 79.912L51.2134 79.9117C51.1315 79.8547 51.0498 79.7976 50.9649 79.7406C50.1332 79.181 49.3183 78.6193 48.5352 78.0453C48.4479 77.9813 48.3637 77.9164 48.2794 77.8514C48.2079 77.7963 48.1365 77.7412 48.0632 77.6867C47.2724 77.0952 46.5002 76.4933 45.754 75.8692C45.671 75.8 45.5898 75.7295 45.5087 75.6589C45.4563 75.6134 45.404 75.5679 45.3512 75.5229C44.6015 74.882 43.872 74.2194 43.1625 73.5264C43.1398 73.5042 43.1172 73.4819 43.0946 73.4595L43.0573 73.4224L43.0162 73.3816L42.9731 73.3391L52.9088 63.4058ZM39.7348 78.5181C36.8461 75.817 34.2858 72.785 32.1072 69.4845L27.6689 71.4028L20.3988 74.5462C21.8434 81.6093 21.9229 88.8835 20.6324 95.9763H59.3408C58.2395 93.6882 56.727 91.6217 54.8786 89.8805C53.8697 89.0344 52.9445 88.278 52.2872 87.7727C52.1764 87.6967 52.07 87.6155 51.9637 87.5343C51.8166 87.422 51.6695 87.3097 51.5108 87.2113C50.207 86.4024 48.9859 85.6085 47.8002 84.8146C47.5483 84.6458 47.2967 84.4728 47.048 84.3018L47.0478 84.3017L47.0475 84.3015L47.0473 84.3014L47.0471 84.3012L46.9044 84.2031C45.7823 83.4327 44.6981 82.6542 43.6665 81.8593C43.6292 81.8305 43.5908 81.8023 43.5523 81.7741L43.5521 81.774L43.552 81.7739C43.5278 81.7562 43.5036 81.7384 43.4797 81.7205C43.4635 81.7084 43.4474 81.6962 43.4315 81.6838C42.2545 80.7684 41.1363 79.8124 40.0542 78.8193C39.9932 78.7631 39.9325 78.7053 39.8717 78.6475C39.8261 78.6041 39.7805 78.5607 39.7348 78.5181ZM12.677 55.7964L12.6567 55.7467L11.396 52.8341L26.3203 57.2305L29.326 64.1759L18.3533 68.9196L12.677 55.7964ZM119.676 170.685C119.675 169.035 118.338 167.698 116.688 167.697H50.9446C49.2944 167.697 47.9563 169.034 47.9563 170.685C47.9563 172.335 49.2941 173.673 50.9446 173.673H116.688C118.337 173.672 119.674 172.335 119.676 170.685ZM61.7978 161.72L64.7541 155.743H102.888L105.876 161.72H61.7978ZM119.676 149.767C144.421 149.739 164.473 129.686 164.501 104.942V101.953H6.11965V104.942C6.14732 129.686 26.1998 149.739 50.9446 149.767H119.676Z" fill="white"/>
<path opacity="0.7" d="M57.759 41.2736C58.9048 42.4614 60.7969 42.4954 61.9848 41.3496C63.1726 40.2037 63.2066 38.3116 62.0608 37.1238C59.1892 34.0995 59.1892 29.3561 62.0608 26.3318C67.1414 20.9823 67.1414 12.5902 62.0608 7.24028C60.9149 6.05242 59.0228 6.01845 57.835 7.16429C56.6471 8.31012 56.6132 10.2022 57.759 11.3901C60.6306 14.4144 60.6306 19.1577 57.759 22.182C52.6812 27.533 52.6812 35.9226 57.759 41.2736Z" fill="white"/>
<path opacity="0.7" d="M81.6654 35.2968C82.8112 36.4846 84.7033 36.5186 85.8911 35.3728C87.079 34.2269 87.113 32.3348 85.9671 31.147C83.0955 28.1227 83.0955 23.3793 85.9671 20.355C91.0478 15.0055 91.0478 6.61339 85.9671 1.26347C84.8213 0.0756116 82.9292 0.0416427 81.7413 1.18748C80.5535 2.33332 80.5195 4.22542 81.6654 5.41328C84.5369 8.43756 84.5369 13.1809 81.6654 16.2052C76.5879 21.5562 76.5875 29.9458 81.6654 35.2968Z" fill="white"/>
<path opacity="0.7" d="M105.572 41.2736C106.718 42.4614 108.61 42.4954 109.798 41.3496C110.986 40.2037 111.02 38.3116 109.874 37.1238C107.002 34.0995 107.002 29.3561 109.874 26.3318C114.955 20.9823 114.955 12.5902 109.874 7.24028C108.728 6.05242 106.836 6.01845 105.648 7.16429C104.46 8.31012 104.426 10.2022 105.572 11.3901C108.444 14.4144 108.444 19.1577 105.572 22.182C100.494 27.533 100.494 35.9226 105.572 41.2736Z" fill="white"/>
</svg>
